X: 21
T: Tout mal me vient Dieu mercy et fortune
N: Derived from Com3041-Tout_mal_me_vient_Dieu_mercy_et_fortune.krn
C: Loyset Comp\`ere
%%abc-version 2.0
%%abcx-abcm2ps-target-version 5.9.1 (29 Sep 2008)
%%abc-creator hum2abc beta
%%abcx-conversion-date 2019/02/16 20:28:09
%%abc-edited-by Jesse Rodin
%%abc-edited-by Megan K. Eagen 2013/11/30
%%abcx-initial-encoding-date 2013/11/30/
%%humdrum-veritas 2757114257
%%humdrum-veritas-data 3376689233
%%linebreak <none>
%%barnumbers 0
L: 1/4
M: 2/1
Q: 1/2=120
V: 1 clef=treble
V: 2 clef=treble-8
V: 3 clef=bass
K: C
[V:1] z8 | 
[V:2] E4E4 | 
[V:3] E,4G,3A, | 
[V:1] E4E4 | 
[V:2] E4A4- | 
[V:3] B,2C3DE2 | 
[V:1] E4A4- | 
[V:2] A4A4 | 
[V:3] A,2C3B,A,2- | 
[V:1] A4A4 | 
[V:2] c8 | 
[V:3] A,G,F,E,F,4 | 
[V:1] G2ABc4 | 
[V:2] e8 | 
[V:3] E,4C,4 | 
[V:1] B4A2B2- | 
[V:2] d4c2d2- | 
[V:3] G,4A,2G,2- | 
[V:1] BAA4^G2 | 
[V:2] dcA2B4 | 
[V:3] G,A,F,2E,4 | 
[V:1] A4z4 | 
[V:2] A8 | 
[V:3] z2E3DEC | 
[V:1] A4A2c2- | 
[V:2] z8 | 
[V:3] D2C3B,CA, | 
[V:1] c2B2A4 | 
[V:2] A4A2c2- | 
[V:3] E4z2E2- | 
[V:1] G4c4 | 
[V:2] c2B2A4 | 
[V:3] E2D2E2C2 | 
[V:1] B4A4- | 
[V:2] G4c4- | 
[V:3] D2G,2A,2F,2- | 
[V:1] A2GFE4- | 
[V:2] c4c4 | 
[V:3] F,2E,D,C,4 | 
[V:1] E2DCB,4 | 
[V:2] c4d4 | 
[V:3] C,4G,2A,B, | 
[V:1] A,3B,C2D2- | 
[V:2] e3dc2B2- | 
[V:3] C3B,A,2G,2- | 
[V:1] DCA,2B,4 | 
[V:2] BAA4^G2 | 
[V:3] G,A,F,2E,4 | 
[V:1] A,4z4 | 
[V:2] A8 | 
[V:3] z2E3DCB, | 
[V:1] E4G3A | 
[V:2] z4e4 | 
[V:3] A,2C4B,A, | 
[V:1] B2c4B2 | 
[V:2] e8 | 
[V:3] G,2A,4G,2 | 
[V:1] A2GFE4- | 
[V:2] f4g4- | 
[V:3] F,2E,D,C,4- | 
[V:1] E2F2G4- | 
[V:2] g4c4- | 
[V:3] C,8- | 
[V:1] G4C4- | 
[V:2] c2B2A2GF | 
[V:3] C,4z4 | 
[V:1] C2B,A,B,4 | 
[V:2] E3FGAB2 | 
[V:3] C,4G,4 | 
[V:1] A,2E4DC | 
[V:2] c2BAG2c2- | 
[V:3] F,2G,2E,2A,2 | 
[V:1] D4C4 | 
[V:2] c2B2c4 | 
[V:3] G,4C,4 | 
[V:1] E6D2- | 
[V:2] G2ABc2B2- | 
[V:3] z2C,4D,2- | 
[V:1] DCA,2B,4 | 
[V:2] BAA4^G2 | 
[V:3] D,2F,2E,4 | 
[V:1] A,8 | 
[V:2] A4z4 | 
[V:3] z2D,3E,F,G, | 
[V:1] z4E4- | 
[V:2] A6c2- | 
[V:3] A,B,C3DE2- | 
[V:1] E4F4 | 
[V:2] cBAGA4 | 
[V:3] EDCB,C4 | 
[V:1] G8 | 
[V:2] G6c2- | 
[V:3] D6E2- | 
[V:1] E4C4 | 
[V:2] c4e4- | 
[V:3] E4A,3B, | 
[V:1] G2A2B4 | 
[V:2] e2d4cB | 
[V:3] C2F,2G,4 | 
[V:1] c4B2A2- | 
[V:2] A4d4 | 
[V:3] F,4G,2D,2 | 
[V:1] AGF2E2D2 | 
[V:2] c2ABc2B2 | 
[V:3] F,4C,2G,2- | 
[V:1] EDG4^F2 | 
[V:2] G4A4 | 
[V:3] G,F,E,2D,4 | 
[V:1] G8 | 
[V:2] G4z4 | 
[V:3] z4G,4 | 
[V:1] z4G4 | 
[V:2] G4c4- | 
[V:3] E,4C,4 | 
[V:1] A8 | 
[V:2] c4d4 | 
[V:3] F,8 | 
[V:1] G2ABc4 | 
[V:2] e6dc | 
[V:3] E,4A,4 | 
[V:1] B2A4G2 | 
[V:2] d4c2A2- | 
[V:3] G,2F,2A,4 | 
[V:1] E8 | 
[V:2] ABc3BAG | 
[V:3] C2A,3G,E,2 | 
[V:1] F4G4 | 
[V:2] A4G2c2- | 
[V:3] D,4z2C,2- | 
[V:1] E2C2D4 | 
[V:2] c2BAB4 | 
[V:3] C,4G,4 | 
[V:1] C2B,A,G,4 | 
[V:2] c4z2e2- | 
[V:3] C,8- | 
[V:1] G2ABc2B2- | 
[V:2] e6d2- | 
[V:3] C,4z2G,2- | 
[V:1] B2A4^G2 | 
[V:2] d2c2B4 | 
[V:3] G,2A,2E,4 | 
[V:1] A8 |]  
[V:2] A8 |]  
[V:3] E8 |]  



